X:1
T:Apostles, CM
T:Apostles, CM
T:Samuel Sebastian Wesley, 1864
T:Public Domain Courtesy of the Cyber Hymnal™
C:Samuel Sebastian Wesley, 1864
Z:Public Domain
Z:Courtesy of the Cyber Hymnal™
%%score ( 1 2 ) ( 3 4 )
L:1/8
Q:1/4=110
M:4/4
K:F
V:1 treble 
V:2 treble 
V:3 bass 
V:4 bass 
V:1
 [CF]2 | [DF]3 [DF] [EG]2 [EA]2 | [FB]2 [FB]2 [FA]2 [FA]2 | [DB]2 [CG]2 [CA]2 (GF) | [CE]6 [A,F]2 | %5
 [CG]2 [DB]2 [CA]2 [FA]2 | [EG]2 [DF]2 [Fc]2 [FA]2 | [DG]2 [DF]2 [CF]2 E2 | [A,F]6 |] %9
V:2
 x2 | x8 | x8 | x6 D2 | x8 | x8 | x8 | x6 (CB,) | x6 |] %9
V:3
 [F,A,]2 | [D,A,]3 [D,A,] [C,C]2 [C,C]2 | [B,,D]2 [B,,D]2 [F,C]2 [F,C]2 | %3
 [G,B,]2 [E,C]2 [F,A,]2 [B,,B,]2 | [C,G,]6 [D,F,]2 | [C,E,]2 [B,,F,]2 F,2 [F,C]2 | %6
 [C,C]2 [D,A,]2 [A,,A,]2 [D,F,]2 | [B,,B,]2 (B,A,) [C,G,]2 [C,G,]2 | [F,,F,]6 |] %9
V:4
 x2 | x8 | x8 | x8 | x8 | x4 F,2 x2 | x8 | x2 B,,2 x4 | x6 |] %9

